; generated by PrusaSlicer 2.2.0+linux-x64 on 2020-10-06 at 17:24:05 UTC

; 

; external perimeters extrusion width = 0.60mm
; perimeters extrusion width = 0.50mm
; infill extrusion width = 0.50mm
; solid infill extrusion width = 0.50mm
; top infill extrusion width = 0.45mm
; first layer extrusion width = 0.42mm

M73 P0 R48
M73 Q0 S48
M201 X1000 Y1000 Z200 E5000 ; sets maximum accelerations, mm/sec^2
M203 X200 Y200 Z12 E120 ; sets maximum feedrates, mm/sec
M204 P1250 R1250 T1250 ; sets acceleration (P, T) and retract acceleration (R), mm/sec^2
M205 X8.00 Y8.00 Z0.40 E4.50 ; sets the jerk limits, mm/sec
M205 S0 T0 ; sets the minimum extruding and travel feed rate, mm/sec
M107
M862.3 P "MK3S" ; printer model check
M862.1 P0.4 ; nozzle diameter check
M115 U3.9.0 ; tell printer latest fw version
G90 ; use absolute coordinates
M83 ; extruder relative mode
M104 S215 ; set extruder temp
M140 S60 ; set bed temp
M190 S60 ; wait for bed temp
M109 S215 ; wait for extruder temp
G28 W ; home all without mesh bed level
G80 ; mesh bed leveling
G1 Y-3.0 F1000.0 ; go outside print area
G92 E0.0
G1 X60.0 E9.0 F1000.0 ; intro line
M73 Q0 S48
M73 P0 R48
G1 X100.0 E12.5 F1000.0 ; intro line
G92 E0.0
M221 S95
G21 ; set units to millimeters
G90 ; use absolute coordinates
M83 ; use relative distances for extrusion
M900 K0.06 ; Filament gcode LA 1.5
M900 K30 ; Filament gcode LA 1.0
;BEFORE_LAYER_CHANGE
G92 E0.0
;0.2


G1 E-0.80000 F2100.00000
G1 Z0.600 F10800.000
;AFTER_LAYER_CHANGE
;0.2
G1 X107.008 Y78.650
G1 Z0.200
G1 E0.80000 F2100.00000
M204 S1000
G1 F1200.000
G1 X107.506 Y78.123 E0.02272
G1 X108.139 Y77.771 E0.02272
G1 X108.849 Y77.626 E0.02272
G1 X141.040 Y77.623 E1.00931
G1 X141.913 Y77.791 E0.02790
G1 X142.661 Y78.266 E0.02778
G1 X143.185 Y78.985 E0.02790
G1 X143.408 Y79.847 E0.02790
G1 X143.413 Y112.079 E1.01063
G1 X143.308 Y112.770 E0.02190
G1 X143.111 Y113.231 E0.01574
G1 X142.821 Y113.641 E0.01574
G1 X126.702 Y131.660 E0.75805
G1 X126.189 Y132.058 E0.02036
G1 X125.588 Y132.303 E0.02036
G1 X124.942 Y132.376 E0.02036
G1 X124.305 Y132.273 E0.02024
G1 X123.726 Y132.007 E0.02000
G1 X123.238 Y131.595 E0.02000
G1 X107.180 Y113.642 E0.75523
G1 X106.709 Y112.822 E0.02966
G1 X106.587 Y112.071 E0.02383
G1 X106.587 Y79.992 E1.00582
G1 X106.692 Y79.302 E0.02190
G1 X106.982 Y78.704 E0.02084
G1 F8640.000
G1 X107.506 Y78.123 E-0.18059
G1 X108.139 Y77.771 E-0.16733
G1 X108.849 Y77.626 E-0.16733
G1 X109.909 Y77.626 E-0.24475
G1 E-0.04000 F2100.00000
G1 Z0.800 F10800.000
G1 X109.751 Y80.787
G1 Z0.200
G1 E0.80000 F2100.00000
G1 F1200.000
G1 X140.249 Y80.787 E0.95622
G1 X140.249 Y111.771 E0.97147
G1 X125.000 Y128.819 E0.71717
G1 X109.751 Y111.771 E0.71717
G1 X109.751 Y80.847 E0.96959
G1 X109.374 Y80.410 F10800.000
G1 F1200.000
G1 X140.626 Y80.410 E0.97987
G1 X140.626 Y111.915 E0.98781
G1 X125.000 Y129.385 E0.73490
G1 X109.374 Y111.915 E0.73490
G1 X109.374 Y80.470 E0.98593
G1 X109.739 Y80.573 F10800.000
G1 F8640.000
G1 X112.666 Y80.464 E-0.76000
G1 E-0.04000 F2100.00000
G1 Z0.800 F10800.000
G1 X125.364 Y128.242
G1 Z0.200
G1 E0.80000 F2100.00000
G1 F1200.000
G1 X120.616 Y123.494 E0.21065
G1 X116.096 Y118.440 E0.21265
G1 X125.496 Y127.840 E0.41698
G1 X125.748 Y127.559 E0.01185
G1 X111.576 Y113.387 E0.62865
G1 X110.034 Y111.663 E0.07256
G1 X110.034 Y111.311 E0.01102
G1 X126.000 Y127.277 E0.70823
G1 X126.252 Y126.996 E0.01185
G1 X110.034 Y110.778 E0.71940
G1 X110.034 Y110.244 E0.01673
G1 X126.504 Y126.714 E0.73058
G1 X126.756 Y126.432 E0.01185
G1 X110.034 Y109.711 E0.74175
G1 X110.034 Y109.177 E0.01673
G1 X127.007 Y126.151 E0.75292
G1 X127.259 Y125.869 E0.01185
G1 X110.034 Y108.644 E0.76410
G1 X110.034 Y108.110 E0.01673
G1 X127.511 Y125.588 E0.77527
G1 X127.763 Y125.306 E0.01185
G1 X110.034 Y107.577 E0.78644
G1 X110.034 Y107.044 E0.01673
G1 X128.015 Y125.024 E0.79762
G1 X128.267 Y124.743 E0.01185
G1 X110.034 Y106.510 E0.80879
G1 X110.034 Y105.977 E0.01673
G1 X128.519 Y124.461 E0.81996
G1 X128.771 Y124.180 E0.01185
G1 X110.034 Y105.443 E0.83114
G1 X110.034 Y104.910 E0.01673
G1 X129.022 Y123.898 E0.84231
G1 X129.274 Y123.616 E0.01185
G1 X110.034 Y104.376 E0.85348
G1 X110.034 Y103.843 E0.01673
G1 X129.526 Y123.335 E0.86465
G1 X129.778 Y123.053 E0.01185
G1 X110.034 Y103.309 E0.87583
G1 X110.034 Y102.776 E0.01673
G1 X130.030 Y122.772 E0.88700
G1 X130.282 Y122.490 E0.01185
G1 X110.034 Y102.242 E0.89817
G1 X110.034 Y101.709 E0.01673
G1 X130.534 Y122.208 E0.90935
G1 X130.786 Y121.927 E0.01185
G1 X110.034 Y101.175 E0.92052
G1 X110.034 Y100.642 E0.01673
G1 X131.037 Y121.645 E0.93169
G1 X131.289 Y121.363 E0.01185
G1 X110.034 Y100.108 E0.94287
G1 X110.034 Y99.575 E0.01673
G1 X131.541 Y121.082 E0.95404
M73 Q2 S47
M73 P2 R47
G1 X131.793 Y120.800 E0.01185
G1 X110.034 Y99.041 E0.96521
G1 X110.034 Y98.508 E0.01673
G1 X132.045 Y120.519 E0.97638
G1 X132.297 Y120.237 E0.01185
G1 X110.034 Y97.974 E0.98756
G1 X110.034 Y97.441 E0.01673
G1 X132.549 Y119.955 E0.99873
G1 X132.801 Y119.674 E0.01185
G1 X110.034 Y96.907 E1.00990
G1 X110.034 Y96.374 E0.01673
G1 X133.052 Y119.392 E1.02108
G1 X133.304 Y119.111 E0.01185
G1 X110.034 Y95.840 E1.03225
G1 X110.034 Y95.307 E0.01673
G1 X133.556 Y118.829 E1.04342
G1 X133.808 Y118.547 E0.01185
G1 X110.034 Y94.773 E1.05460
G1 X110.034 Y94.240 E0.01673
G1 X134.060 Y118.266 E1.06577
G1 X134.312 Y117.984 E0.01185
G1 X110.034 Y93.706 E1.07694
G1 X110.034 Y93.173 E0.01673
G1 X134.564 Y117.703 E1.08811
G1 X134.816 Y117.421 E0.01185
G1 X110.034 Y92.639 E1.09929
G1 X110.034 Y92.106 E0.01673
G1 X135.067 Y117.139 E1.11046
G1 X135.319 Y116.858 E0.01185
G1 X110.034 Y91.573 E1.12163
G1 X110.034 Y91.039 E0.01673
G1 X135.571 Y116.576 E1.13281
G1 X135.823 Y116.295 E0.01185
G1 X110.034 Y90.506 E1.14398
G1 X110.034 Y89.972 E0.01673
G1 X136.075 Y116.013 E1.15515
G1 X136.327 Y115.731 E0.01185
G1 X110.034 Y89.439 E1.16633
G1 X110.034 Y88.905 E0.01673
G1 X136.579 Y115.450 E1.17750
G1 X136.831 Y115.168 E0.01185
G1 X110.034 Y88.372 E1.18867
G1 X110.034 Y87.838 E0.01673
G1 X137.083 Y114.887 E1.19985
G1 X137.334 Y114.605 E0.01185
G1 X110.034 Y87.305 E1.21102
G1 X110.034 Y86.771 E0.01673
G1 X137.586 Y114.323 E1.22219
G1 X137.838 Y114.042 E0.01185
G1 X110.034 Y86.238 E1.23336
G1 X110.034 Y85.704 E0.01673
G1 X138.090 Y113.760 E1.24454
G1 X138.342 Y113.479 E0.01185
G1 X110.034 Y85.171 E1.25571
G1 X110.034 Y84.637 E0.01673
G1 X138.594 Y113.197 E1.26688
G1 X138.846 Y112.915 E0.01185
G1 X110.034 Y84.104 E1.27806
G1 X110.034 Y83.570 E0.01673
G1 X139.098 Y112.634 E1.28923
G1 X139.349 Y112.352 E0.01185
G1 X110.034 Y83.037 E1.30040
G1 X110.034 Y82.503 E0.01673
G1 X139.601 Y112.070 E1.31158
G1 X139.853 Y111.789 E0.01185
G1 X110.034 Y81.970 E1.32275
M73 Q4 S46
M73 P4 R46
G1 X110.034 Y81.436 E0.01673
G1 X139.966 Y111.368 E1.32775
G1 X139.966 Y110.835 E0.01673
G1 X110.201 Y81.070 E1.32034
G1 X110.735 Y81.070 E0.01673
G1 X139.966 Y110.301 E1.29668
G1 X139.966 Y109.768 E0.01673
G1 X111.268 Y81.070 E1.27301
G1 X111.802 Y81.070 E0.01673
G1 X139.966 Y109.234 E1.24935
G1 X139.966 Y108.701 E0.01673
G1 X112.335 Y81.070 E1.22568
G1 X112.869 Y81.070 E0.01673
G1 X139.966 Y108.167 E1.20202
G1 X139.966 Y107.634 E0.01673
G1 X113.402 Y81.070 E1.17835
G1 X113.935 Y81.070 E0.01673
G1 X139.966 Y107.100 E1.15469
G1 X139.966 Y106.567 E0.01673
G1 X114.469 Y81.070 E1.13102
G1 X115.002 Y81.070 E0.01673
G1 X139.966 Y106.033 E1.10736
G1 X139.966 Y105.500 E0.01673
G1 X115.536 Y81.070 E1.08369
G1 X116.069 Y81.070 E0.01673
G1 X139.966 Y104.966 E1.06003
G1 X139.966 Y104.433 E0.01673
G1 X116.603 Y81.070 E1.03636
G1 X117.136 Y81.070 E0.01673
G1 X139.966 Y103.899 E1.01270
G1 X139.966 Y103.366 E0.01673
G1 X117.670 Y81.070 E0.98903
G1 X118.203 Y81.070 E0.01673
G1 X139.966 Y102.832 E0.96537
G1 X139.966 Y102.299 E0.01673
G1 X118.737 Y81.070 E0.94170
G1 X119.270 Y81.070 E0.01673
G1 X139.966 Y101.765 E0.91804
G1 X139.966 Y101.232 E0.01673
G1 X119.804 Y81.070 E0.89437
G1 X120.337 Y81.070 E0.01673
G1 X139.966 Y100.698 E0.87071
G1 X139.966 Y100.165 E0.01673
G1 X120.871 Y81.070 E0.84704
G1 X121.404 Y81.070 E0.01673
G1 X139.966 Y99.631 E0.82338
G1 X139.966 Y99.098 E0.01673
G1 X121.938 Y81.070 E0.79971
G1 X122.471 Y81.070 E0.01673
G1 X139.966 Y98.565 E0.77605
G1 X139.966 Y98.031 E0.01673
G1 X123.005 Y81.070 E0.75238
G1 X123.538 Y81.070 E0.01673
G1 X139.966 Y97.498 E0.72872
G1 X139.966 Y96.964 E0.01673
G1 X124.072 Y81.070 E0.70505
G1 X124.605 Y81.070 E0.01673
G1 X139.966 Y96.431 E0.68139
G1 X139.966 Y95.897 E0.01673
G1 X125.139 Y81.070 E0.65773
G1 X125.672 Y81.070 E0.01673
G1 X139.966 Y95.364 E0.63406
G1 X139.966 Y94.830 E0.01673
G1 X126.206 Y81.070 E0.61040
G1 X126.739 Y81.070 E0.01673
G1 X139.966 Y94.297 E0.58673
G1 X139.966 Y93.763 E0.01673
G1 X127.273 Y81.070 E0.56307
G1 X127.806 Y81.070 E0.01673
G1 X139.966 Y93.230 E0.53940
G1 X139.966 Y92.696 E0.01673
G1 X128.340 Y81.070 E0.51574
G1 X128.873 Y81.070 E0.01673
G1 X139.966 Y92.163 E0.49207
G1 X139.966 Y91.629 E0.01673
G1 X129.406 Y81.070 E0.46841
G1 X129.940 Y81.070 E0.01673
G1 X139.966 Y91.096 E0.44474
G1 X139.966 Y90.562 E0.01673
G1 X130.473 Y81.070 E0.42108
G1 X131.007 Y81.070 E0.01673
G1 X139.966 Y90.029 E0.39741
G1 X139.966 Y89.495 E0.01673
G1 X131.540 Y81.070 E0.37375
G1 X132.074 Y81.070 E0.01673
G1 X139.966 Y88.962 E0.35008
G1 X139.966 Y88.428 E0.01673
G1 X132.607 Y81.070 E0.32642
M73 Q6 S45
M73 P6 R44
G1 X133.141 Y81.070 E0.01673
G1 X139.966 Y87.895 E0.30275
G1 X139.966 Y87.361 E0.01673
G1 X133.674 Y81.070 E0.27909
G1 X134.208 Y81.070 E0.01673
G1 X139.966 Y86.828 E0.25542
G1 X139.966 Y86.294 E0.01673
G1 X134.741 Y81.070 E0.23176
G1 X135.275 Y81.070 E0.01673
G1 X139.966 Y85.761 E0.20809
G1 X139.966 Y85.227 E0.01673
G1 X135.808 Y81.070 E0.18443
G1 X136.342 Y81.070 E0.01673
G1 X139.966 Y84.694 E0.16076
G1 X139.966 Y84.161 E0.01673
G1 X136.875 Y81.070 E0.13710
G1 X137.409 Y81.070 E0.01673
G1 X139.966 Y83.627 E0.11343
G1 X139.966 Y83.094 E0.01673
G1 X137.942 Y81.070 E0.08977
G1 X138.476 Y81.070 E0.01673
G1 X139.966 Y82.560 E0.06610
G1 X139.966 Y82.027 E0.01673
G1 X139.009 Y81.070 E0.04244
G1 X139.543 Y81.070 E0.01673
G1 X140.136 Y81.663 E0.02630
;BEFORE_LAYER_CHANGE
G92 E0.0
;0.5


G1 F8640.000
G1 X139.543 Y81.070 E-0.19361
G1 X139.009 Y81.070 E-0.12318
G1 X139.966 Y82.027 E-0.31241
G1 X139.966 Y82.560 E-0.12318
G1 X139.943 Y82.537 E-0.00762
G1 E-0.04000 F2100.00000
G1 Z0.800 F10800.000
;AFTER_LAYER_CHANGE
;0.5
G1 X143.185 Y78.985
G1 Z0.500
G1 E0.80000 F2100.00000
G1 F2700.000
G1 X143.408 Y79.847 E0.03947
G1 X143.413 Y112.079 E1.42966
G1 X143.308 Y112.770 E0.03097
G1 X143.111 Y113.231 E0.02226
G1 X142.821 Y113.641 E0.02226
G1 X126.702 Y131.660 E1.07237
G1 X126.189 Y132.058 E0.02880
G1 X125.588 Y132.303 E0.02880
G1 X124.942 Y132.376 E0.02880
G1 X124.305 Y132.273 E0.02863
G1 X123.726 Y132.007 E0.02830
G1 X123.238 Y131.595 E0.02830
G1 X107.180 Y113.642 E1.06838
G1 X106.709 Y112.822 E0.04196
G1 X106.587 Y112.071 E0.03371
G1 X106.587 Y79.992 E1.42286
G1 X106.692 Y79.302 E0.03097
G1 X107.008 Y78.650 E0.03214
G1 X107.506 Y78.123 E0.03214
G1 X108.139 Y77.771 E0.03214
G1 X108.849 Y77.626 E0.03214
G1 X141.040 Y77.623 E1.42781
G1 X141.913 Y77.791 E0.03947
G1 X142.661 Y78.266 E0.03930
G1 X143.150 Y78.937 E0.03681
G1 F8640.000
G1 X143.408 Y79.847 E-0.21841
G1 X143.408 Y82.192 E-0.54159
G1 E-0.04000 F2100.00000
G1 Z1.100 F10800.000
G1 X140.250 Y80.786
G1 Z0.500
G1 E0.80000 F2100.00000
M204 S800
G1 F3000.000
G1 X140.250 Y111.771 E1.68355
G1 X125.000 Y128.822 E1.24287
G1 X109.750 Y111.771 E1.24287
G1 X109.750 Y80.786 E1.68355
G1 X140.190 Y80.786 E1.65391
M204 S1000
G1 X140.736 Y80.300 F10800.000
M204 S800
G1 F2100.000
G1 X140.736 Y111.957 E2.11485
G1 X125.000 Y129.550 E1.57685
G1 X109.264 Y111.957 E1.57685
G1 X109.264 Y80.300 E2.11485
G1 X140.676 Y80.300 E2.09846
M204 S1000
G1 X140.633 Y80.686 F10800.000
G1 F8640.000
G1 X140.682 Y83.591 E-0.76000
G1 E-0.04000 F2100.00000
G1 Z1.100 F10800.000
G1 X124.579 Y128.154
G1 Z0.500
G1 E0.80000 F2100.00000
G1 F4800.000
G1 X130.070 Y122.663 E0.42239
G1 X135.295 Y116.822 E0.42628
G1 X124.426 Y127.690 E0.83601
G1 X124.135 Y127.365 E0.02376
G1 X139.923 Y111.576 E1.21444
G1 X139.923 Y110.960 E0.03354
G1 X123.844 Y127.039 E1.23683
G1 X123.553 Y126.713 E0.02376
G1 X139.923 Y110.343 E1.25923
G1 X139.923 Y109.726 E0.03354
G1 X123.262 Y126.388 E1.28163
G1 X122.970 Y126.062 E0.02376
G1 X139.923 Y109.109 E1.30402
G1 X139.923 Y108.493 E0.03354
G1 X122.679 Y125.737 E1.32642
G1 X122.388 Y125.411 E0.02376
G1 X139.923 Y107.876 E1.34882
G1 X139.923 Y107.259 E0.03354
G1 X122.097 Y125.086 E1.37122
G1 X121.806 Y124.760 E0.02376
G1 X139.923 Y106.643 E1.39361
G1 X139.923 Y106.026 E0.03354
G1 X121.515 Y124.435 E1.41601
G1 X121.223 Y124.109 E0.02376
G1 X139.923 Y105.409 E1.43841
G1 X139.923 Y104.792 E0.03354
G1 X120.932 Y123.784 E1.46080
G1 X120.641 Y123.458 E0.02376
G1 X139.923 Y104.176 E1.48320
G1 X139.923 Y103.559 E0.03354
G1 X120.350 Y123.132 E1.50560
G1 X120.059 Y122.807 E0.02376
G1 X139.923 Y102.942 E1.52799
G1 X139.923 Y102.326 E0.03354
G1 X119.768 Y122.481 E1.55039
G1 X119.476 Y122.156 E0.02376
G1 X139.923 Y101.709 E1.57279
G1 X139.923 Y101.092 E0.03354
G1 X119.185 Y121.830 E1.59519
G1 X118.894 Y121.505 E0.02376
G1 X139.923 Y100.475 E1.61758
G1 X139.923 Y99.859 E0.03354
G1 X118.603 Y121.179 E1.63998
G1 X118.312 Y120.854 E0.02376
G1 X139.923 Y99.242 E1.66238
G1 X139.923 Y98.625 E0.03354
G1 X118.020 Y120.528 E1.68477
G1 X117.729 Y120.203 E0.02376
G1 X139.923 Y98.009 E1.70717
G1 X139.923 Y97.392 E0.03354
G1 X117.438 Y119.877 E1.72957
G1 X117.147 Y119.552 E0.02376
G1 X139.923 Y96.775 E1.75197
G1 X139.923 Y96.158 E0.03354
G1 X116.856 Y119.226 E1.77436
G1 X116.565 Y118.900 E0.02376
G1 X139.923 Y95.542 E1.79676
G1 X139.923 Y94.925 E0.03354
G1 X116.273 Y118.575 E1.81916
G1 X115.982 Y118.249 E0.02376
G1 X139.923 Y94.308 E1.84155
G1 X139.923 Y93.692 E0.03354
G1 X115.691 Y117.924 E1.86395
G1 X115.400 Y117.598 E0.02376
G1 X139.923 Y93.075 E1.88635
G1 X139.923 Y92.458 E0.03354
G1 X115.109 Y117.273 E1.90874
G1 X114.818 Y116.947 E0.02376
G1 X139.923 Y91.841 E1.93114
G1 X139.923 Y91.225 E0.03354
G1 X114.526 Y116.622 E1.95354
G1 X114.235 Y116.296 E0.02376
G1 X139.923 Y90.608 E1.97594
G1 X139.923 Y89.991 E0.03354
G1 X113.944 Y115.971 E1.99833
G1 X113.653 Y115.645 E0.02376
G1 X139.923 Y89.375 E2.02073
G1 X139.923 Y88.758 E0.03354
G1 X113.362 Y115.319 E2.04313
G1 X113.071 Y114.994 E0.02376
G1 X139.923 Y88.141 E2.06552
G1 X139.923 Y87.524 E0.03354
G1 X112.779 Y114.668 E2.08792
G1 X112.488 Y114.343 E0.02376
G1 X139.923 Y86.908 E2.11032
G1 X139.923 Y86.291 E0.03354
G1 X112.197 Y114.017 E2.13271
G1 X111.906 Y113.692 E0.02376
G1 X139.923 Y85.674 E2.15511
G1 X139.923 Y85.058 E0.03354
G1 X111.615 Y113.366 E2.17751
G1 X111.323 Y113.041 E0.02376
G1 X139.923 Y84.441 E2.19991
G1 X139.923 Y83.824 E0.03354
G1 X111.032 Y112.715 E2.22230
G1 X110.741 Y112.390 E0.02376
G1 X139.923 Y83.207 E2.24470
G1 X139.923 Y82.591 E0.03354
G1 X110.450 Y112.064 E2.26710
G1 X110.159 Y111.739 E0.02376
G1 X139.923 Y81.974 E2.28949
G1 X139.923 Y81.357 E0.03354
G1 X110.077 Y111.204 E2.29582
G1 X110.077 Y110.587 E0.03354
G1 X139.552 Y81.112 E2.26722
G1 X138.935 Y81.112 E0.03354
G1 X110.077 Y109.971 E2.21978
G1 X110.077 Y109.354 E0.03354
G1 X138.318 Y81.112 E2.17234
G1 X137.701 Y81.112 E0.03354
G1 X110.077 Y108.737 E2.12491
G1 X110.077 Y108.120 E0.03354
G1 X137.085 Y81.112 E2.07747
G1 X136.468 Y81.112 E0.03354
G1 X110.077 Y107.504 E2.03003
G1 X110.077 Y106.887 E0.03354
G1 X135.851 Y81.112 E1.98259
G1 X135.235 Y81.112 E0.03354
G1 X110.077 Y106.270 E1.93515
G1 X110.077 Y105.654 E0.03354
G1 X134.618 Y81.112 E1.88772
G1 X134.001 Y81.112 E0.03354
G1 X110.077 Y105.037 E1.84028
G1 X110.077 Y104.420 E0.03354
G1 X133.384 Y81.112 E1.79284
G1 X132.768 Y81.112 E0.03354
G1 X110.077 Y103.803 E1.74540
G1 X110.077 Y103.187 E0.03354
G1 X132.151 Y81.112 E1.69797
G1 X131.534 Y81.112 E0.03354
G1 X110.077 Y102.570 E1.65053
G1 X110.077 Y101.953 E0.03354
G1 X130.918 Y81.112 E1.60309
G1 X130.301 Y81.112 E0.03354
G1 X110.077 Y101.337 E1.55565
G1 X110.077 Y100.720 E0.03354
G1 X129.684 Y81.112 E1.50822
G1 X129.067 Y81.112 E0.03354
G1 X110.077 Y100.103 E1.46078
G1 X110.077 Y99.486 E0.03354
G1 X128.451 Y81.112 E1.41334
